X:1
T:O Praise the LORD, for He Is Good
T:Tune: Lee Hastings Bristol, Jr., 1951 Text under copyright; for copyrighted material see Psalter Hymnal 106
T:CMD SEDGWICK www.hymnary.org/text/o_praise_the_lord_for_he_is_good_give_th
T:O Praise the LORD, for He Is Good
T:This music is in the public domain. You may freely use this score for personal and congregational worship. If you reproduce the score, please credit Hymnary.org as the source. 
T:This music is in the public domain. You may freely use this score for personal and congregational worship. If you reproduce the score, please credit Hymnary.org as the source. 
Z:This music is in the public domain. You may freely use this score for personal and congregational worship. If you reproduce the score, please credit Hymnary.org as the source.
%%score ( 1 2 ) ( 3 4 )
L:1/8
M:4/4
K:G
V:1 treble nm="SOPRANO ALTO" snm="S. A."
V:2 treble 
V:3 bass nm="TENOR BASS" snm="T. B."
V:4 bass 
V:1
 D2 | B2 B2 Bc d2 | G3 F E2 D2 | EF G2 | A2 A2 | B6 D2 | B2 B2 Bc d2 | G3 F E2 | D2 | EF G2 A2 A2 | %10
 D6 A2 | c2 A2 A2 ^G2 | A3 B c2 A2 | d2 c2 BA G2 | F6 D2 | B2 B2 |1 Bc d2 | G3 F E2 D2 | %18
 EF G2 G2 F2 | G6 x2 |] %20
V:2
 D2 | D2 D2 G2 D2 | D2 D2 C2 D2 | C2 B,2 | D2 D2 | D6 D2 | D2 D2 G2 D2 | D2 D2 C2 | D2 | %9
 C2 B,2 E2 ^C2 | D6 F2 | E2 E2 =F2 E2 | E3 E E2 E2 | D2 D2 D2 ^C2 | D6 D2 | D2 D2 |1 G2 D2 | %17
 D2 D2 C2 D2 | C2 B,C D2 D2 | D6 x2 |] %20
V:3
 D,2 | G,2 A,2 G,2 A,2 | B,3 A, G,2 G,2 | G,2 G,2 | G,2 F,2 | G,6 A,2 | G,2 A,2 B,2 A,2 | %7
 B,3 A, G,2 | G,2 | G,2 G,2 E,F, G,2 | F,6 D2 | C2 C2 DC B,2 | C3 B, A,2 C2 | A,2 A,2 G,2 A,2 | %14
 A,6 A,2 | G,2 A,2 |1 B,2 A,2 | B,3 A, G,2 G,2 | G,2 G,2 A,B, C2 | B,6 x2 |] %20
V:4
 D,2 | G,2 F,2 E,2 F,2 | G,2 B,,2 C,2 B,,2 | C,2 E,2 | D,2 D,2 | G,,6 F,2 | G,2 F,2 E,2 F,2 | %7
 G,2 B,,2 C,2 | B,,2 | C,2 E,2 ^C,2 A,,2 | D,6 D,2 | A,2 A,2 D,2 E,2 | A,3 ^G, A,2 =G,2 | %13
 F,2 F,2 G,2 E,2 | D,6 F,2 | G,2 F,2 |1 E,2 F,2 | G,2 B,,2 C,2 B,,2 | C,2 E,2 D,2 D,2 | G,6 x2 |] %20

